X: 38888
T: Sunrise At Bealtaine
R: waltz
M: 3/4
K: Gmajor
B3AG2|E4D2|z2d2e2|B3AG2|B3AG2|E4G2|D2B2G2|A3dc2|
B3AG2|E4D2|z2d2e2|B3AG2|ggg2a2|f3ed2|d2ABd2|1 e3dc2:|2 e4f2||
|:g3ag2|f3ed2|z2d2e2|B3AG2|ggg2a2|f3ed2|d2ABd2|e4f2|
g3ag2|f3ed2|z2d2e2|B3AG2|G2Bcd2|c2A2c2|B2G2B2|1 AB cd ef:|2 A2F2A2||
|:GF GA Bc|d2D2E2|G3AB2|A3FD2|G3AB2|c3de2|d2B2G2|A3FD2|
GF GA Bc|d2D2E2|G3AB2|c3de2|d2B2d2|c2A2c2|B2G2B2|1 A2F2A2:|2 AB cd ef||
g3ag2|f3ed2|z2g2b2|a3ga2|g3ag2|f3ed2|c2e2g2|d3e fd|
g3ag2|f3ed2|z2g2b2|a3gf2|e3fg2|d3cB2|c2AB cA|Bc de fd|
g3ag2|f3ed2|z2g2b2|a3ga2|g3ab2|a3f d2|c2e2g2|f3d ef|
g3ab2|a3fd2|d2g2b2|a3g ab|c'3ba2|bb ba g2|fg ag fe|de fd cA

